src/assets/images/svg/voice-search.svg

<svg width="16" height="18" viewBox="0 0 16 18" fill="none" xmlns="http://www.w3.org/2000/svg">
<path d="M7.86774 11.003C7.00412 11.003 6.26271 10.7403 5.64351 10.2149C5.02431 9.68954 4.71472 9.06737 4.71472 8.34841V3.03921C4.71472 2.29261 5.02431 1.66352 5.64351 1.15196C6.26271 0.640395 7.00412 0.384613 7.86774 0.384613C8.73135 0.384613 9.46462 0.640395 10.0675 1.15196C10.6704 1.66352 10.9719 2.29261 10.9719 3.03921V8.34841C10.9719 9.06737 10.6704 9.68954 10.0675 10.2149C9.46462 10.7403 8.73135 11.003 7.86774 11.003ZM13.3672 8.34841H15.1759C15.1759 9.84163 14.5649 11.1482 13.3428 12.2681C12.1207 13.388 10.646 14.0586 8.91874 14.2798V17.1833H6.81673V14.2798C5.08949 14.0586 3.61482 13.3811 2.39272 12.2474C1.17062 11.1136 0.55957 9.81398 0.55957 8.34841H2.3194C2.3194 9.62041 2.87342 10.685 3.98145 11.5422C5.08949 12.3994 6.38492 12.8281 7.86774 12.8281C9.35055 12.8281 10.6378 12.3994 11.7296 11.5422C12.8213 10.685 13.3672 9.62041 13.3672 8.34841Z" fill="white" fill-opacity="0.4"/>
</svg>

<svg xmlns="http://www.w3.org/2000/svg" fill="none" viewBox="0 0 16 18">
  <defs/>
  <path fill="#fff" fill-opacity=".4" d="M7.87 11c-.87 0-1.6-.26-2.23-.79a2.38 2.38 0 01-.93-1.86V3.04c0-.75.31-1.38.93-1.89A3.38 3.38 0 017.87.38c.86 0 1.6.26 2.2.77.6.51.9 1.14.9 1.89v5.3c0 .73-.3 1.35-.9 1.87-.6.53-1.34.8-2.2.8zm5.5-2.65h1.8c0 1.5-.6 2.8-1.83 3.92a7.86 7.86 0 01-4.42 2.01v2.9h-2.1v-2.9a7.79 7.79 0 01-4.43-2.03 5.19 5.19 0 01-1.83-3.9h1.76a3.9 3.9 0 001.66 3.2c1.1.85 2.4 1.28 3.89 1.28 1.48 0 2.77-.43 3.86-1.29a3.91 3.91 0 001.64-3.2z"/>
</svg>
